X:2
T:Cluny Gardens
R:Strathspey
C:Anselm Lingnau
S:16 July 1995
G:SSL 4
H:`Cluny Gardens' is the name of the street
where Tony and Barbara Gibbons live in Edinburgh.
This tune, together with `Tony \& Barbara Gibbons',
forms part of my set of alternative tunes for `Anna Holden's Strathspey'.
\enlargethispage{\baselineskip}
K:G
M:C
E:5
B>A|"G"A<G G2 G<D G>F|"C"F<E E>D "G/B"D2 (3DEF|G2 G>A B<G "Am"c>B|\
"D"A>G A<B A2 B>A|
"G"A<G G2 G<D G>F|"C"F<E E>D "Bm"G>B d<e|"Em"d/B/A/G/ A>G "C"E3 D|E G3 "G"G2||
b>a|"G"a<g g>d "C"e>d "G/B"B<G|"Am"A>B A<G "C"E2 "D"(3DEF|\
"G"G2 g>G "C"g<e "Bm"d>B|"Am"A>G A<B "D"A2 b>a|
"G"a<g g>d "C"e>d "G/B"e<g|"Am"e<d "G"d>B "D"A2 d>e|"G"d/B/A/G/ A>G "C"E3 D|\
E G3 "G"G2|]
